X: 39441
T: Tarantella
R: slide
M: 12/8
K: Cmajor
|:EAB cBc dcB c3|ABc BAB dcB c3|
EAB cBc dcB c3|ABc BAB dcB A3:|
|:a2 a e2 e a2 a e3|ede f3 fgf e3|
cde d3 Bcd c3|ABc BAB dcB A3:|

